;FLAVOR:Marlin
;TIME:18236
;Filament used: 18.6329m
;Layer height: 0.28
;MINX:67
;MINY:22.336
;MINZ:0.28
;MAXX:233
;MAXY:188.336
;MAXZ:22.12
;TARGET_MACHINE.NAME:Creality CR-6 SE
;MKSPREVIEWPROCESSED
; Postprocessed by [MKS WiFi plugin](https://github.com/PrintMakerLab/mks-wifi-plugin)
; simage=0
; gimage=0
;Generated with Cura_SteamEngine 5.6.0
M140 S60
M105
M190 S60
M104 S200
M105
M109 S200
M82 ;absolute extrusion mode
M201 X500.00 Y500.00 Z100.00 E5000.00 ;Setup machine max acceleration
M203 X500.00 Y500.00 Z10.00 E50.00 ;Setup machine max feedrate
M204 P500.00 R1000.00 T500.00 ;Setup Print/Retract/Travel acceleration
M205 X8.00 Y8.00 Z0.40 E5.00 ;Setup Jerk
M220 S100 ;Reset Feedrate
M221 S100 ;Reset Flowrate

G28 ;Home

G92 E0 ;Reset Extruder
G1 Z2.0 F3000 ;Move Z Axis up
G1 X10.1 Y20 Z0.28 F5000.0 ;Move to start position
G1 X10.1 Y200.0 Z0.28 F1500.0 E15 ;Draw the first line
G1 X10.4 Y200.0 Z0.28 F5000.0 ;Move to side a little
G1 X10.4 Y20 Z0.28 F1500.0 E30 ;Draw the second line
G92 E0 ;Reset Extruder
G1 Z2.0 F3000 ;Move Z Axis up

M141 S28
G92 E0
G92 E0
G1 F1500 E-6.5
;LAYER_COUNT:79
;LAYER:0
M107 P1
G0 F6000 X70.877 Y39.857 Z0.28
;TYPE:SKIRT
G1 F1500 E0
G1 F1200 X71.174 Y39.348 E0.02744
G1 X72.534 Y37.129 E0.14863
G1 X72.929 Y36.507 E0.18294
G1 X73.627 Y35.531 E0.23881
G1 X74.044 Y35.02 E0.26952
G1 X75.612 Y33.182 E0.38202
G1 X76.228 Y32.482 E0.42544
G1 X77.051 Y31.647 E0.48003
G1 X77.52 Y31.228 E0.50932
G1 X79.475 Y29.557 E0.62907
G1 X80.053 Y29.077 E0.66406
G1 X81.088 Y28.316 E0.72387
G1 X81.625 Y27.972 E0.75357
G1 X83.661 Y26.725 E0.86474
G1 X84.439 Y26.264 E0.90685
G1 X85.539 Y25.696 E0.9645
G1 X86.173 Y25.416 E0.99677
G1 X88.33 Y24.522 E1.1055
G1 X89.159 Y24.193 E1.14703
G1 X90.376 Y23.792 E1.20669
G1 X91.06 Y23.613 E1.23961
G1 X93.321 Y23.072 E1.34787
G1 X94.203 Y22.874 E1.38996
G1 X95.377 Y22.681 E1.44536
G1 X96.09 Y22.609 E1.47873
G1 X98.644 Y22.411 E1.59801
G1 X99.515 Y22.358 E1.63864
G1 X100.152 Y22.34 E1.66832
G1 X199.303 Y22.336 E6.2852
G1 X200.183 Y22.347 E6.32618
G1 X201.222 Y22.399 E6.37462
G1 X203.745 Y22.598 E6.49247
G1 X204.494 Y22.667 E6.52749
G1 X205.641 Y22.84 E6.58151
G1 X206.332 Y22.989 E6.61442
G1 X208.824 Y23.586 E6.73374
G1 X209.515 Y23.762 E6.76695
G1 X210.698 Y24.137 E6.82473
G1 X211.297 Y24.37 E6.85466
G1 X213.679 Y25.358 E6.97474
G1 X214.39 Y25.666 E7.01082
G1 X215.441 Y26.193 E7.06557
G1 X216.006 Y26.522 E7.09601
G1 X218.176 Y27.852 E7.21452
G1 X218.809 Y28.252 E7.24939
G1 X219.828 Y28.98 E7.3077
G1 X220.285 Y29.354 E7.3352
G1 X222.271 Y31.051 E7.45684
G1 X222.855 Y31.566 E7.4931
G1 X223.684 Y32.381 E7.54723
G1 X224.106 Y32.853 E7.57671
G1 X225.76 Y34.788 E7.69524
G1 X226.259 Y35.389 E7.73162
G1 X227.009 Y36.407 E7.79049
G1 X227.314 Y36.884 E7.81686
G1 X228.701 Y39.144 E7.94033
G1 X229.062 Y39.754 E7.97334
G1 X229.619 Y40.828 E8.02967
G1 X229.885 Y41.43 E8.06032
G1 X230.843 Y43.744 E8.17694
G1 X231.135 Y44.476 E8.21363
G1 X231.534 Y45.674 E8.27243
G1 X231.7 Y46.307 E8.3029
G1 X232.27 Y48.681 E8.41659
G1 X232.457 Y49.509 E8.45611
G1 X232.65 Y50.672 E8.51101
G1 X232.728 Y51.436 E8.54677
G1 X232.925 Y53.98 E8.66558
G1 X232.978 Y54.851 E8.70621
G1 X232.996 Y55.488 E8.73589
G1 X233 Y154.639 E13.35277
G1 X232.988 Y155.514 E13.39352
G1 X232.933 Y156.608 E13.44453
G1 X232.738 Y159.073 E13.55967
G1 X232.667 Y159.838 E13.59544
G1 X232.497 Y160.974 E13.64893
G1 X232.35 Y161.656 E13.68141
G1 X231.742 Y164.189 E13.80271
G1 X231.577 Y164.838 E13.83389
G1 X231.18 Y166.08 E13.89461
G1 X230.932 Y166.718 E13.92648
G1 X230.036 Y168.878 E14.03537
G1 X229.666 Y169.731 E14.07866
G1 X229.116 Y170.824 E14.13564
G1 X228.769 Y171.417 E14.16763
G1 X227.48 Y173.52 E14.28249
G1 X227.057 Y174.185 E14.31919
G1 X226.352 Y175.167 E14.37548
G1 X225.957 Y175.65 E14.40453
G1 X224.307 Y177.582 E14.52283
G1 X223.778 Y178.182 E14.56008
G1 X222.957 Y179.017 E14.61461
G1 X222.48 Y179.444 E14.64442
G1 X220.53 Y181.108 E14.76378
G1 X219.908 Y181.624 E14.80142
G1 X218.99 Y182.303 E14.85458
G1 X218.413 Y182.676 E14.88658
G1 X216.317 Y183.961 E15.00106
G1 X215.553 Y184.414 E15.04242
G1 X214.42 Y184.996 E15.10173
G1 X213.805 Y185.264 E15.13296
G1 X211.542 Y186.2 E15.247
G1 X210.815 Y186.488 E15.28341
G1 X209.659 Y186.871 E15.34011
G1 X209.03 Y187.036 E15.37039
G1 X206.656 Y187.606 E15.48408
G1 X205.808 Y187.797 E15.52455
G1 X204.697 Y187.983 E15.57701
G1 X204.017 Y188.053 E15.60884
G1 X201.356 Y188.261 E15.73312
G1 X200.485 Y188.314 E15.77376
G1 X199.848 Y188.332 E15.80343
G1 X100.697 Y188.336 E20.42032
G1 X99.817 Y188.325 E20.46129
G1 X98.778 Y188.273 E20.50974
G1 X96.255 Y188.074 E20.62758
G1 X95.508 Y188.005 E20.66251
G1 X94.369 Y187.834 E20.71614
G1 X93.646 Y187.679 E20.75058
G1 X91.188 Y187.088 E20.86829
G1 X90.485 Y186.909 E20.90207
G1 X89.272 Y186.523 E20.96134
G1 X88.66 Y186.286 E20.9919
G1 X86.456 Y185.372 E21.10301
G1 X85.625 Y185.012 E21.14518
G1 X84.512 Y184.452 E21.20319
G1 X83.919 Y184.105 E21.23518
G1 X81.816 Y182.816 E21.35004
G1 X81.151 Y182.393 E21.38674
G1 X80.169 Y181.688 E21.44303
G1 X79.685 Y181.292 E21.47215
G1 X77.737 Y179.628 E21.59144
G1 X77.154 Y179.114 E21.62763
G1 X76.319 Y178.293 E21.68216
G1 X75.891 Y177.815 E21.71204
G1 X74.222 Y175.86 E21.83173
G1 X73.714 Y175.247 E21.8688
G1 X73.033 Y174.326 E21.92214
G1 X72.66 Y173.749 E21.95413
G1 X71.375 Y171.653 E22.06861
G1 X70.926 Y170.896 E22.1096
G1 X70.336 Y169.748 E22.1697
G1 X70.072 Y169.141 E22.20052
G1 X69.135 Y166.876 E22.31466
G1 X68.846 Y166.146 E22.35121
G1 X68.465 Y164.996 E22.40763
G1 X68.304 Y164.381 E22.43723
G1 X67.73 Y161.989 E22.55177
G1 X67.54 Y161.15 E22.59183
G1 X67.353 Y160.029 E22.64475
G1 X67.282 Y159.345 E22.67677
G1 X67.082 Y156.793 E22.79596
G1 X67.031 Y156.009 E22.83255
G1 X67.012 Y155.532 E22.85478
G1 X67 Y154.797 E22.88901
G1 X67.001 Y55.887 E27.49467
G1 X67.011 Y55.157 E27.52866
G1 X67.063 Y54.113 E27.57734
G1 X67.262 Y51.591 E27.69514
G1 X67.333 Y50.842 E27.73017
G1 X67.519 Y49.618 E27.78782
G1 X67.663 Y48.959 E27.81923
G1 X68.226 Y46.614 E27.93153
G1 X68.423 Y45.838 E27.96881
G1 X68.805 Y44.629 E28.02785
G1 X69.056 Y43.987 E28.05994
G1 X70.038 Y41.618 E28.17936
G1 X70.33 Y40.946 E28.21347
G1 X70.877 Y39.857 E28.27022
G0 F6000 X71.222 Y40.059
G1 F1200 X71.515 Y39.557 E28.29728
G1 X72.872 Y37.343 E28.4182
G1 X73.254 Y36.74 E28.45144
G1 X73.937 Y35.784 E28.50615
G1 X74.348 Y35.28 E28.53643
G1 X75.913 Y33.446 E28.6487
G1 X76.513 Y32.763 E28.69103
G1 X77.318 Y31.945 E28.74447
G1 X77.78 Y31.532 E28.77332
G1 X79.731 Y29.865 E28.89282
G1 X80.309 Y29.385 E28.9278
G1 X81.304 Y28.653 E28.98532
G1 X81.834 Y28.313 E29.01464
G1 X83.865 Y27.069 E29.12554
G1 X84.623 Y26.619 E29.16659
G1 X85.7 Y26.062 E29.22305
G1 X86.326 Y25.786 E29.2549
G1 X88.478 Y24.894 E29.36338
G1 X89.307 Y24.565 E29.40491
G1 X90.477 Y24.179 E29.46228
G1 X91.153 Y24.002 E29.49481
G1 X93.409 Y23.462 E29.60283
G1 X94.268 Y23.269 E29.64383
G1 X95.442 Y23.076 E29.69923
G1 X96.121 Y23.008 E29.731
G1 X98.668 Y22.81 E29.84996
G1 X99.526 Y22.758 E29.88998
G1 X100.152 Y22.74 E29.91915
G1 X199.298 Y22.736 E34.5358
G1 X200.163 Y22.747 E34.57608
G1 X201.191 Y22.798 E34.62401
G1 X203.708 Y22.996 E34.74157
G1 X204.434 Y23.063 E34.77552
G1 X205.581 Y23.236 E34.82953
G1 X206.239 Y23.378 E34.86088
G1 X208.725 Y23.974 E34.97992
G1 X209.416 Y24.15 E35.01312
G1 X210.577 Y24.518 E35.06983
G1 X211.144 Y24.74 E35.09819
G1 X213.52 Y25.725 E35.21795
G1 X214.211 Y26.024 E35.25301
G1 X215.24 Y26.539 E35.30659
G1 X215.797 Y26.863 E35.3366
G1 X217.962 Y28.19 E35.45484
G1 X218.595 Y28.59 E35.4897
G1 X219.575 Y29.29 E35.54578
G1 X220.025 Y29.658 E35.57285
G1 X222.007 Y31.351 E35.69423
G1 X222.575 Y31.851 E35.72946
G1 X223.386 Y32.648 E35.78241
G1 X223.802 Y33.113 E35.81146
G1 X225.452 Y35.044 E35.92973
G1 X225.951 Y35.645 E35.96611
G1 X226.672 Y36.623 E36.02268
G1 X226.973 Y37.093 E36.04867
G1 X228.357 Y39.348 E36.17187
G1 X228.707 Y39.938 E36.20382
G1 X229.253 Y40.99 E36.25901
G1 X229.515 Y41.583 E36.2892
G1 X230.471 Y43.892 E36.40556
G1 X230.763 Y44.624 E36.44226
G1 X231.147 Y45.776 E36.4988
G1 X231.311 Y46.4 E36.52885
G1 X231.88 Y48.769 E36.64229
G1 X232.062 Y49.574 E36.68072
G1 X232.255 Y50.737 E36.73562
G1 X232.329 Y51.467 E36.76979
G1 X232.526 Y54.004 E36.88827
G1 X232.578 Y54.862 E36.9283
G1 X232.596 Y55.488 E36.95746
G1 X232.6 Y154.634 E41.57411
G1 X232.589 Y155.494 E41.61416
G1 X232.534 Y156.577 E41.66466
G1 X232.34 Y159.036 E41.77951
G1 X232.271 Y159.779 E41.81426
G1 X232.101 Y160.915 E41.86775
G1 X231.961 Y161.563 E41.89862
G1 X231.354 Y164.09 E42.01963
G1 X231.189 Y164.739 E42.05081
G1 X230.807 Y165.935 E42.10927
G1 X230.562 Y166.565 E42.14075
G1 X229.669 Y168.719 E42.24933
G1 X229.309 Y169.551 E42.29154
G1 X228.771 Y170.622 E42.34735
G1 X228.428 Y171.208 E42.37897
G1 X227.142 Y173.306 E42.49355
G1 X226.732 Y173.952 E42.52918
G1 X226.042 Y174.914 E42.5843
G1 X225.653 Y175.39 E42.61293
G1 X224.007 Y177.318 E42.73097
G1 X223.493 Y177.902 E42.7672
G1 X222.69 Y178.719 E42.82054
G1 X222.22 Y179.14 E42.84992
G1 X220.275 Y180.8 E42.96899
G1 X219.67 Y181.302 E43.00559
G1 X218.752 Y181.981 E43.05876
G1 X218.204 Y182.335 E43.08914
G1 X216.113 Y183.617 E43.20335
G1 X215.37 Y184.058 E43.24358
G1 X214.26 Y184.629 E43.3017
G1 X213.652 Y184.894 E43.33259
G1 X211.395 Y185.828 E43.44633
G1 X210.689 Y186.108 E43.48169
G1 X209.557 Y186.484 E43.53723
G1 X208.937 Y186.647 E43.56709
G1 X206.568 Y187.216 E43.68053
G1 X205.742 Y187.402 E43.71996
G1 X204.631 Y187.588 E43.77241
G1 X203.986 Y187.654 E43.8026
G1 X201.332 Y187.862 E43.92656
G1 X200.474 Y187.914 E43.96659
G1 X199.848 Y187.932 E43.99575
G1 X100.702 Y187.936 E48.6124
G1 X99.837 Y187.925 E48.65268
G1 X98.809 Y187.874 E48.70061
G1 X96.292 Y187.676 E48.81817
G1 X95.567 Y187.609 E48.85208
G1 X94.428 Y187.438 E48.90571
G1 X93.74 Y187.29 E48.93848
G1 X91.287 Y186.7 E49.05596
G1 X90.584 Y186.521 E49.08974
G1 X89.417 Y186.15 E49.14676
G1 X88.813 Y185.916 E49.17692
G1 X86.615 Y185.005 E49.28771
G1 X85.805 Y184.655 E49.3288
G1 X84.714 Y184.107 E49.38565
G1 X84.128 Y183.764 E49.41726
G1 X82.03 Y182.478 E49.53185
G1 X81.384 Y182.068 E49.56747
G1 X80.422 Y181.378 E49.6226
G1 X79.945 Y180.988 E49.65129
G1 X78.001 Y179.328 E49.77032
G1 X77.434 Y178.829 E49.80549
G1 X76.617 Y178.026 E49.85883
G1 X76.195 Y177.555 E49.88828
G1 X74.53 Y175.605 E50.00768
G1 X74.036 Y175.009 E50.04372
G1 X73.355 Y174.088 E50.09706
G1 X73.001 Y173.54 E50.12744
G1 X71.719 Y171.449 E50.24165
G1 X71.282 Y170.713 E50.2815
G1 X70.703 Y169.588 E50.34042
G1 X70.442 Y168.988 E50.37089
G1 X69.507 Y166.729 E50.48473
G1 X69.226 Y166.02 E50.52024
G1 X68.852 Y164.894 E50.57549
G1 X68.693 Y164.288 E50.60466
G1 X68.12 Y161.901 E50.71897
G1 X67.935 Y161.084 E50.75797
G1 X67.748 Y159.963 E50.81089
G1 X67.681 Y159.314 E50.84128
G1 X67.481 Y156.767 E50.96024
G1 X67.431 Y155.993 E50.99636
G1 X67.412 Y155.525 E51.01817
G1 X67.4 Y154.797 E51.05207
G1 X67.401 Y55.893 E55.65745
G1 X67.411 Y55.177 E55.6908
G1 X67.462 Y54.144 E55.73896
G1 X67.66 Y51.628 E55.85647
G1 X67.728 Y50.902 E55.89043
G1 X67.91 Y49.703 E55.9469
G1 X68.052 Y49.052 E55.97792
G1 X68.614 Y46.712 E56.08998
G1 X68.811 Y45.936 E56.12726
G1 X69.178 Y44.774 E56.184
G1 X69.425 Y44.14 E56.21569
G1 X70.405 Y41.777 E56.33481
G1 X70.697 Y41.105 E56.36892
G1 X71.222 Y40.059 E56.42342
G0 F6000 X71.568 Y40.26
G1 F1200 X71.856 Y39.766 E56.45005
G1 X73.21 Y37.557 E56.57069
G1 X73.592 Y36.954 E56.60393
G1 X74.247 Y36.037 E56.6564
G1 X74.652 Y35.54 E56.68626
G1 X76.214 Y33.71 E56.79829
G1 X76.798 Y33.044 E56.83953
G1 X77.603 Y32.226 E56.89297
G1 X78.04 Y31.836 E56.92025
G1 X79.987 Y30.173 E57.03948
G1 X80.565 Y29.693 E57.07446
G1 X81.52 Y28.99 E57.12968
G1 X82.043 Y28.654 E57.15863
G1 X84.069 Y27.413 E57.26926
G1 X84.807 Y26.974 E57.30924
G1 X85.861 Y26.428 E57.36451
G1 X86.479 Y26.156 E57.39596
G1 X88.626 Y25.266 E57.50418
G1 X89.455 Y24.937 E57.54571
G1 X90.578 Y24.566 E57.60078
G1 X91.246 Y24.391 E57.63293
G1 X93.497 Y23.852 E57.74071
G1 X94.333 Y23.664 E57.78061
G1 X95.507 Y23.471 E57.83601
G1 X96.152 Y23.407 E57.86619
G1 X98.692 Y23.209 E57.98483
G1 X99.538 Y23.158 E58.02429
G1 X100.152 Y23.14 E58.05289
G1 X199.293 Y23.136 E62.66931
G1 X200.143 Y23.147 E62.7089
G1 X201.16 Y23.197 E62.75631
G1 X203.671 Y23.394 E62.87359
G1 X204.374 Y23.459 E62.90647
G1 X205.521 Y23.632 E62.96048
G1 X206.146 Y23.767 E62.99025
G1 X208.626 Y24.362 E63.10901
G1 X209.317 Y24.538 E63.14221
G1 X210.432 Y24.891 E63.19667
G1 X210.991 Y25.109 E63.22461
G1 X213.361 Y26.092 E63.34408
G1 X214.032 Y26.382 E63.37812
G1 X215.039 Y26.885 E63.43054
G1 X215.588 Y27.204 E63.4601
G1 X217.749 Y28.528 E63.57811
G1 X218.363 Y28.915 E63.61191
G1 X219.322 Y29.6 E63.66678
G1 X219.765 Y29.962 E63.69342
G1 X221.743 Y31.651 E63.81454
G1 X222.295 Y32.137 E63.84878
G1 X223.088 Y32.915 E63.90051
G1 X223.498 Y33.373 E63.92913
G1 X225.144 Y35.3 E64.04714
G1 X225.643 Y35.901 E64.08352
G1 X226.335 Y36.839 E64.13779
G1 X226.632 Y37.302 E64.16341
G1 X228.013 Y39.552 E64.28634
G1 X228.352 Y40.122 E64.31722
G1 X228.887 Y41.152 E64.37126
G1 X229.145 Y41.736 E64.40099
G1 X230.1 Y44.04 E64.51713
G1 X230.384 Y44.751 E64.55278
G1 X230.76 Y45.878 E64.6081
G1 X230.922 Y46.493 E64.63771
G1 X231.49 Y48.857 E64.75092
G1 X231.667 Y49.639 E64.78826
G1 X231.86 Y50.802 E64.84315
G1 X231.93 Y51.498 E64.87572
G1 X232.127 Y54.028 E64.99389
G1 X232.178 Y54.874 E65.03335
G1 X232.196 Y55.488 E65.06195
G1 X232.2 Y154.629 E69.67837
G1 X232.189 Y155.479 E69.71796
G1 X232.171 Y155.958 E69.74028
G1 X232.135 Y156.546 E69.76771
G1 X231.942 Y158.999 E69.88228
G1 X231.875 Y159.72 E69.916
G1 X231.705 Y160.856 E69.96949
G1 X231.572 Y161.47 E69.99874
G1 X230.966 Y163.991 E70.11947
G1 X230.801 Y164.64 E70.15065
G1 X230.434 Y165.79 E70.20686
G1 X230.192 Y166.412 E70.23794
G1 X229.302 Y168.561 E70.34625
G1 X228.952 Y169.372 E70.38738
G1 X228.426 Y170.42 E70.44198
G1 X228.087 Y170.999 E70.47322
G1 X226.804 Y173.092 E70.58754
G1 X226.407 Y173.719 E70.62209
G1 X225.732 Y174.661 E70.67605
G1 X225.349 Y175.13 E70.70425
G1 X223.706 Y177.054 E70.82206
G1 X223.207 Y177.622 E70.85726
G1 X222.423 Y178.421 E70.90939
G1 X221.96 Y178.836 E70.93834
G1 X220.02 Y180.492 E71.05711
G1 X219.432 Y180.98 E71.09269
G1 X218.514 Y181.659 E71.14586
G1 X217.995 Y181.994 E71.17462
G1 X215.908 Y183.273 E71.2886
G1 X215.187 Y183.702 E71.32767
G1 X214.1 Y184.262 E71.3846
G1 X213.499 Y184.524 E71.41513
G1 X211.247 Y185.456 E71.52862
G1 X210.563 Y185.728 E71.5629
G1 X209.455 Y186.097 E71.61728
G1 X208.844 Y186.258 E71.6467
G1 X206.48 Y186.826 E71.75991
G1 X205.676 Y187.007 E71.79828
G1 X204.565 Y187.193 E71.85074
G1 X203.955 Y187.255 E71.87929
G1 X201.308 Y187.463 E72.00292
G1 X200.462 Y187.514 E72.04239
G1 X199.848 Y187.532 E72.07099
G1 X100.707 Y187.536 E76.68741
G1 X99.857 Y187.525 E76.72699
G1 X98.84 Y187.475 E76.77441
G1 X96.329 Y187.278 E76.89169
G1 X95.626 Y187.213 E76.92456
G1 X94.487 Y187.042 E76.97819
G1 X93.834 Y186.901 E77.0093
G1 X91.386 Y186.312 E77.12654
G1 X90.683 Y186.133 E77.16032
G1 X89.562 Y185.777 E77.21509
G1 X88.966 Y185.546 E77.24485
G1 X86.774 Y184.638 E77.35533
G1 X85.964 Y184.288 E77.39642
G1 X84.916 Y183.762 E77.45102
G1 X84.337 Y183.423 E77.48226
G1 X82.244 Y182.14 E77.59657
G1 X81.617 Y181.743 E77.63113
G1 X80.675 Y181.068 E77.68509
G1 X80.205 Y180.684 E77.71335
G1 X78.265 Y179.027 E77.83215
G1 X77.714 Y178.543 E77.8663
G1 X76.915 Y177.759 E77.91843
G1 X76.499 Y177.295 E77.94744
G1 X74.838 Y175.349 E78.06658
G1 X74.358 Y174.771 E78.10156
G1 X73.677 Y173.85 E78.1549
G1 X73.342 Y173.331 E78.18366
G1 X72.063 Y171.244 E78.29764
G1 X71.638 Y170.53 E78.33633
G1 X71.07 Y169.428 E78.39406
